Yaru++/mimetypes/scalable/text-xml.svg

<svg height="256" viewBox="0 0 67.73 67.73" width="256" xmlns="http://www.w3.org/2000/svg" xmlns:xlink="http://www.w3.org/1999/xlink"><radialGradient id="a" cx="179.99261" cy="103.2822" gradientTransform="matrix(1.3687341 -.00000021 .0000002 1.3528551 -121.02851 -70.900578)" gradientUnits="userSpaceOnUse" r="35.068905"><stop offset="0"/><stop offset="1" stop-opacity="0"/></radialGradient><filter id="b" color-interpolation-filters="sRGB" height="1.144" width="1.144" x="-.072" y="-.072"><feGaussianBlur stdDeviation="1.98"/></filter><linearGradient id="c" gradientTransform="matrix(0 -.11988342 .11987999 0 .362762 62.749399)" gradientUnits="userSpaceOnUse" x1="529.65515" x2="-35.310345" y1="401.58368" y2="119.09284"><stop offset="0" stop-color="#f2f2f2"/><stop offset="1" stop-color="#f9f9f9"/></linearGradient><linearGradient id="d" gradientUnits="userSpaceOnUse" x1="88" x2="488" y1="88" y2="488"><stop offset="0" stop-opacity=".588235"/><stop offset=".88" stop-opacity="0"/><stop offset="1"/></linearGradient><filter id="e" color-interpolation-filters="sRGB" height="1.087725" width="1.105998" x="-.052999" y="-.043863"><feGaussianBlur stdDeviation="8.4801079"/></filter><filter id="f" color-interpolation-filters="sRGB" height="1.021931" width="1.0265" x="-.01325" y="-.010966"><feGaussianBlur stdDeviation="2.120027"/></filter><path d="m20.70399 3.4856501c-9.338464 0-10.343273.959177-10.297505 10.3165299v19.315345 19.315344c-.04577 9.357355.959041 10.316531 10.297505 10.316531h25.969365c9.338465 0 10.297506-.959068 10.297506-10.316531v-19.315344-12.699376l-16.9325-16.9324989z" fill="none" opacity=".2" stroke="#000" stroke-width="1.058281"/><path d="m189.84323 74c-70.59344 0-78.18921 7.250835-77.84323 77.98706v146.01294 146.01294c-.34598 70.73623 7.24979 77.98706 77.84323 77.98706h196.31354c70.59344 0 76.00668-7.27384 77.84323-77.98706v-146.01294-98l-128-126z" filter="url(#f)" opacity=".1" transform="matrix(.13228516 0 0 .13228516 -4.409451 -6.038882)"/><path d="m189.84323 74c-70.59344 0-78.18921 7.250835-77.84323 77.98706v146.01294 146.01294c-.34598 70.73623 7.24979 77.98706 77.84323 77.98706h196.31354c70.59344 0 77.84323-7.24999 77.84323-77.98706v-146.01294-96l-128-128z" fill="url(#d)" filter="url(#e)" opacity=".3" transform="matrix(.13228516 0 0 .13228516 -4.409451 -6.038882)"/><path d="m20.70399 3.4856501c-9.338464 0-10.343273.959177-10.297505 10.3165299v19.315345 19.315344c-.04577 9.357355.959041 10.316531 10.297505 10.316531h25.969365c9.338465 0 10.297506-.959068 10.297506-10.316531v-19.315344-12.699376l-16.9325-16.9324989z" fill="url(#c)"/><path d="m20.704059 3.4856501c-9.338466 0-10.343342.959339-10.297574 10.3166909v.529141c-.04577-9.3573519.959108-10.3166919 10.297574-10.3166919h19.334302v-.52914z" fill="#fff" opacity=".6"/><g fill="#d85eca"><path d="m19.234093 39.467286 8.543147 3.513521-.625695 1.853021-10.396166-4.403932v-1.925217l10.396166-4.403931.625695 1.853021z"/><path d="m30.772229 51.114844h-2.286194l8.158103-23.295112h2.238064z"/><path d="m39.598518 35.953769.625695-1.853021 10.396166 4.403931v1.925217l-10.396166 4.403932-.625695-1.853021 8.543144-3.513521z"/></g><g fill="#fff"><path d="m33.688673 3.4856501v59.2637499h12.984614c9.338464 0 10.054627-.962123 10.297574-10.316435v-19.31544-12.699376l-16.9325-16.9324989z" opacity=".1"/><path d="m10.406485 33.117525v19.31544c-.04577 9.357354.959109 10.316435 10.297574 10.316435h25.969228c9.338464 0 10.054627-.962123 10.297574-10.316435v-19.31544z" opacity=".2"/><path d="m41.096642 62.7494 15.874219-15.874219v5.948567c-.01384 8.994282-1.006077 9.925652-10.099734 9.925652z" opacity=".4"/></g><path d="m185.33354 74.825228-66-65.9999998.003 24.9985698v1 .53711c0 35.29429 3.62603 39.63197 38.99414 39.45899z" fill="url(#a)" filter="url(#b)" opacity=".2" transform="matrix(.26457031 0 0 .26457031 7.937108 1.150756)"/><path d="m56.970861 20.94729v-.529141l-16.9325-16.9324989h-.529141v6.6140179.26457.142103c0 9.118097 1.587422 10.440949 10.316692 10.439679z" opacity=".15"/><path d="m56.970085 20.416739-16.930949-16.9309509v6.084601.264571.142103c0 9.3378199.95934 10.4854419 10.316692 10.4396759z" fill="#faf8f6"/></svg>

<?xml version="1.0" encoding="UTF-8" standalone="no"?>
<svg
   xmlns:dc="http://purl.org/dc/elements/1.1/"
   xmlns:cc="http://creativecommons.org/ns#"
   xmlns:rdf="http://www.w3.org/1999/02/22-rdf-syntax-ns#"
   xmlns:svg="http://www.w3.org/2000/svg"
   xmlns="http://www.w3.org/2000/svg"
   xmlns:xlink="http://www.w3.org/1999/xlink"
   xmlns:sodipodi="http://sodipodi.sourceforge.net/DTD/sodipodi-0.dtd"
   xmlns:inkscape="http://www.inkscape.org/namespaces/inkscape"
   height="256"
   viewBox="0 0 67.73 67.73"
   width="256"
   version="1.1"
   id="svg43"
   sodipodi:docname="text-xml.svg"
   inkscape:version="0.92.5 (2060ec1f9f, 2020-04-08)">
  <metadata
     id="metadata49">
    <rdf:RDF>
      <cc:Work
         rdf:about="">
        <dc:format>image/svg+xml</dc:format>
        <dc:type
           rdf:resource="http://purl.org/dc/dcmitype/StillImage" />
      </cc:Work>
    </rdf:RDF>
  </metadata>
  <defs
     id="defs47">
    <radialGradient
       inkscape:collect="always"
       xlink:href="#linearGradient1750"
       id="radialGradient1752"
       cx="179.99261"
       cy="103.2822"
       fx="179.99261"
       fy="103.2822"
       r="35.068905"
       gradientTransform="matrix(1.3687341,-2.0954866e-7,2.0316901e-7,1.3528551,-121.02851,-70.900578)"
       gradientUnits="userSpaceOnUse" />
    <linearGradient
       inkscape:collect="always"
       id="linearGradient1750">
      <stop
         style="stop-color:#000000;stop-opacity:1;"
         offset="0"
         id="stop1746" />
      <stop
         style="stop-color:#000000;stop-opacity:0;"
         offset="1"
         id="stop1748" />
    </linearGradient>
    <filter
       inkscape:collect="always"
       style="color-interpolation-filters:sRGB"
       id="filter2553"
       x="-0.071999997"
       width="1.1440001"
       y="-0.071999997"
       height="1.1440001">
      <feGaussianBlur
         inkscape:collect="always"
         stdDeviation="1.98"
         id="feGaussianBlur2555" />
    </filter>
    <linearGradient
       gradientUnits="userSpaceOnUse"
       y2="119.09284"
       x2="-35.310345"
       y1="401.58368"
       x1="529.65515"
       id="linearGradient4226"
       xlink:href="#linearGradient4338"
       inkscape:collect="always"
       gradientTransform="matrix(0,-0.11988342,0.11987999,0,0.36276174,62.749399)" />
    <linearGradient
       inkscape:collect="always"
       id="linearGradient4338">
      <stop
         style="stop-color:#f2f2f2;stop-opacity:1"
         offset="0"
         id="stop4340" />
      <stop
         style="stop-color:#f9f9f9;stop-opacity:1"
         offset="1"
         id="stop4342" />
    </linearGradient>
    <linearGradient
       inkscape:collect="always"
       xlink:href="#linearGradient4360"
       id="linearGradient4358"
       x1="88"
       y1="88"
       x2="488"
       y2="488"
       gradientUnits="userSpaceOnUse" />
    <linearGradient
       id="linearGradient4360"
       inkscape:collect="always">
      <stop
         id="stop4362"
         offset="0"
         style="stop-color:#000000;stop-opacity:0.58823532" />
      <stop
         style="stop-color:#000000;stop-opacity:0"
         offset="0.88"
         id="stop4364" />
      <stop
         id="stop4366"
         offset="1"
         style="stop-color:#000000;stop-opacity:1" />
    </linearGradient>
    <filter
       inkscape:collect="always"
       style="color-interpolation-filters:sRGB"
       id="filter4380"
       x="-0.052999184"
       width="1.1059984"
       y="-0.043862626"
       height="1.0877253">
      <feGaussianBlur
         inkscape:collect="always"
         stdDeviation="8.4801079"
         id="feGaussianBlur4382" />
    </filter>
    <filter
       inkscape:collect="always"
       style="color-interpolation-filters:sRGB"
       id="filter4346"
       x="-0.013249796"
       width="1.0264996"
       y="-0.010965657"
       height="1.0219313">
      <feGaussianBlur
         inkscape:collect="always"
         stdDeviation="2.120027"
         id="feGaussianBlur4348" />
    </filter>
  </defs>
  <sodipodi:namedview
     pagecolor="#ffffff"
     bordercolor="#666666"
     borderopacity="1"
     objecttolerance="10"
     gridtolerance="10"
     guidetolerance="10"
     inkscape:pageopacity="0"
     inkscape:pageshadow="2"
     inkscape:window-width="834"
     inkscape:window-height="480"
     id="namedview45"
     showgrid="false"
     inkscape:zoom="0.921875"
     inkscape:cx="128"
     inkscape:cy="128"
     inkscape:window-x="0"
     inkscape:window-y="28"
     inkscape:window-maximized="0"
     inkscape:current-layer="svg43" />
  <linearGradient
     id="a"
     gradientTransform="matrix(0 -.11988932 .11988589 0 .36278 292.5483)"
     gradientUnits="userSpaceOnUse"
     x1="529.655"
     x2="-35.31"
     y1="401.584"
     y2="119.093">
    <stop
       offset="0"
       stop-color="#f2f2f2"
       id="stop2" />
    <stop
       offset="1"
       stop-color="#f9f9f9"
       id="stop4" />
  </linearGradient>
  <linearGradient
     id="b"
     gradientUnits="userSpaceOnUse"
     x1="88"
     x2="488"
     y1="88"
     y2="488">
    <stop
       offset="0"
       stop-opacity=".588235"
       id="stop7" />
    <stop
       offset=".88"
       stop-opacity="0"
       id="stop9" />
    <stop
       offset="1"
       id="stop11" />
  </linearGradient>
  <filter
     id="c"
     color-interpolation-filters="sRGB"
     height="1.022"
     width="1.026"
     x="-.01"
     y="-.01">
    <feGaussianBlur
       stdDeviation="2.12"
       id="feGaussianBlur14" />
  </filter>
  <path
     sodipodi:nodetypes="scccssscccs"
     inkscape:connector-curvature="0"
     id="path1163"
     d="m 20.70399,3.4856501 c -9.338464,0 -10.343273,0.959177 -10.297505,10.3165299 V 33.117525 52.432869 C 10.360715,61.790224 11.365526,62.7494 20.70399,62.7494 h 25.969365 c 9.338465,0 10.297506,-0.959068 10.297506,-10.316531 V 33.117525 20.418149 L 40.038361,3.4856501 Z"
     style="color:#000000;display:inline;overflow:visible;visibility:visible;opacity:0.2;fill:none;fill-opacity:1;fill-rule:nonzero;stroke:#000000;stroke-width:1.0582813;stroke-miterlimit:4;stroke-dasharray:none;stroke-opacity:1;marker:none;enable-background:accumulate" />
  <path
     style="color:#000000;display:inline;overflow:visible;visibility:visible;opacity:0.1;fill:#000000;fill-opacity:1;fill-rule:nonzero;stroke:none;stroke-width:2;marker:none;filter:url(#filter4346);enable-background:accumulate"
     d="M 189.84323,74 C 119.24979,74 111.65402,81.250835 112,151.98706 V 298 444.01294 C 111.65402,514.74917 119.24979,522 189.84323,522 H 386.15677 C 456.75021,522 462.16345,514.72616 464,444.01294 V 298 200 L 336,74 Z"
     id="rect4158-9"
     inkscape:connector-curvature="0"
     sodipodi:nodetypes="scccssscccs"
     transform="matrix(0.13228516,0,0,0.13228516,-4.4094514,-6.0388816)" />
  <path
     sodipodi:nodetypes="scccssscccs"
     inkscape:connector-curvature="0"
     id="path4350"
     d="M 189.84323,74 C 119.24979,74 111.65402,81.250835 112,151.98706 V 298 444.01294 C 111.65402,514.74917 119.24979,522 189.84323,522 H 386.15677 C 456.75021,522 464,514.75001 464,444.01294 V 298 202 L 336,74 Z"
     style="color:#000000;display:inline;overflow:visible;visibility:visible;opacity:0.3;fill:url(#linearGradient4358);fill-opacity:1;fill-rule:nonzero;stroke:none;stroke-width:2;marker:none;filter:url(#filter4380);enable-background:accumulate"
     transform="matrix(0.13228516,0,0,0.13228516,-4.4094514,-6.0388816)" />
  <path
     style="color:#000000;display:inline;overflow:visible;visibility:visible;fill:url(#linearGradient4226);fill-opacity:1;fill-rule:nonzero;stroke:none;stroke-width:0.26457033;marker:none;enable-background:accumulate"
     d="m 20.70399,3.4856501 c -9.338464,0 -10.343273,0.959177 -10.297505,10.3165299 V 33.117525 52.432869 C 10.360715,61.790224 11.365526,62.7494 20.70399,62.7494 h 25.969365 c 9.338465,0 10.297506,-0.959068 10.297506,-10.316531 V 33.117525 20.418149 L 40.038361,3.4856501 Z"
     id="rect4158"
     inkscape:connector-curvature="0"
     sodipodi:nodetypes="scccssscccs" />
  <path
     style="color:#000000;display:inline;overflow:visible;visibility:visible;opacity:0.6;fill:#ffffff;fill-opacity:1;fill-rule:nonzero;stroke:none;stroke-width:0.26457033;marker:none;enable-background:accumulate"
     d="m 20.704059,3.4856501 c -9.338466,0 -10.343342,0.959339 -10.297574,10.3166909 v 0.529141 C 10.360715,4.9741301 11.365593,4.0147901 20.704059,4.0147901 h 19.334302 v -0.52914 z"
     id="path931"
     inkscape:connector-curvature="0"
     sodipodi:nodetypes="sccsccs" />
  <path
     inkscape:connector-curvature="0"
     id="path936"
     style="font-style:normal;font-variant:normal;font-weight:normal;font-stretch:normal;font-size:medium;line-height:125%;font-family:Ubuntu;-inkscape-font-specification:'Ubuntu, Normal';text-align:center;letter-spacing:0px;word-spacing:0px;writing-mode:lr-tb;text-anchor:middle;display:inline;fill:#d85eca;fill-opacity:1;stroke:none;stroke-width:0.26457033px;stroke-linecap:butt;stroke-linejoin:miter;stroke-opacity:1;enable-background:new"
     d="m 19.234093,39.467286 8.543147,3.513521 -0.625695,1.853021 -10.396166,-4.403932 v -1.925217 l 10.396166,-4.403931 0.625695,1.853021 z" />
  <path
     inkscape:connector-curvature="0"
     id="path938-3"
     style="font-style:normal;font-variant:normal;font-weight:normal;font-stretch:normal;font-size:medium;line-height:125%;font-family:Ubuntu;-inkscape-font-specification:'Ubuntu, Normal';text-align:center;letter-spacing:0px;word-spacing:0px;writing-mode:lr-tb;text-anchor:middle;display:inline;fill:#d85eca;fill-opacity:1;stroke:none;stroke-width:0.26457033px;stroke-linecap:butt;stroke-linejoin:miter;stroke-opacity:1;enable-background:new"
     d="m 30.772229,51.114844 h -2.286194 l 8.158103,-23.295112 h 2.238064 z" />
  <path
     inkscape:connector-curvature="0"
     id="path940-6"
     style="font-style:normal;font-variant:normal;font-weight:normal;font-stretch:normal;font-size:medium;line-height:125%;font-family:Ubuntu;-inkscape-font-specification:'Ubuntu, Normal';text-align:center;letter-spacing:0px;word-spacing:0px;writing-mode:lr-tb;text-anchor:middle;display:inline;fill:#d85eca;fill-opacity:1;stroke:none;stroke-width:0.26457033px;stroke-linecap:butt;stroke-linejoin:miter;stroke-opacity:1;enable-background:new"
     d="m 39.598518,35.953769 0.625695,-1.853021 10.396166,4.403931 v 1.925217 l -10.396166,4.403932 -0.625695,-1.853021 8.543144,-3.513521 z" />
  <path
     style="color:#000000;display:inline;overflow:visible;visibility:visible;opacity:0.1;fill:#ffffff;fill-opacity:1;fill-rule:nonzero;stroke:none;stroke-width:0.26457033;marker:none;enable-background:accumulate"
     d="M 33.688673,3.4856501 V 62.7494 h 12.984614 c 9.338464,0 10.054627,-0.962123 10.297574,-10.316435 V 33.117525 20.418149 L 40.038361,3.4856501 Z"
     id="path4231"
     inkscape:connector-curvature="0"
     sodipodi:nodetypes="ccsscccc" />
  <path
     inkscape:connector-curvature="0"
     style="color:#000000;display:inline;overflow:visible;visibility:visible;opacity:0.2;fill:#ffffff;fill-opacity:1;fill-rule:nonzero;stroke:none;stroke-width:0.26457033;marker:none;enable-background:accumulate"
     d="m 10.406485,33.117525 v 19.31544 C 10.360715,61.790319 11.365594,62.7494 20.704059,62.7494 h 25.969228 c 9.338464,0 10.054627,-0.962123 10.297574,-10.316435 v -19.31544 z"
     id="path4255"
     sodipodi:nodetypes="ccssscc" />
  <path
     style="color:#000000;display:inline;overflow:visible;visibility:visible;opacity:0.4;fill:#ffffff;fill-opacity:1;fill-rule:nonzero;stroke:none;stroke-width:2.11656237;stroke-linecap:butt;stroke-linejoin:miter;stroke-miterlimit:4;stroke-dasharray:none;stroke-dashoffset:0;stroke-opacity:1;marker:none;enable-background:accumulate"
     d="M 41.096642,62.7494 56.970861,46.875181 v 5.948567 C 56.957021,61.81803 55.964784,62.7494 46.871127,62.7494 Z"
     id="path4254"
     inkscape:connector-curvature="0"
     sodipodi:nodetypes="cccsc" />
  <path
     inkscape:connector-curvature="0"
     style="color:#000000;display:inline;overflow:visible;visibility:visible;opacity:0.2;fill:url(#radialGradient1752);fill-opacity:1;fill-rule:nonzero;stroke:none;stroke-width:1;marker:none;filter:url(#filter2553);enable-background:accumulate"
     d="m 185.33354,74.825228 -66,-65.9999998 0.003,24.9985698 v 1 0.53711 c 0,35.29429 3.62603,39.63197 38.99414,39.45899 z"
     id="rect4158-0-3-6"
     sodipodi:nodetypes="ccccscc"
     transform="matrix(0.26457031,0,0,0.26457031,7.9371082,1.1507561)" />
  <path
     inkscape:connector-curvature="0"
     style="color:#000000;display:inline;overflow:visible;visibility:visible;opacity:0.15;fill:#000000;fill-opacity:1;fill-rule:nonzero;stroke:none;stroke-width:0.26457033;marker:none;enable-background:accumulate"
     d="M 56.970861,20.94729 V 20.418149 L 40.038361,3.4856501 H 39.50922 v 6.6140179 0.26457 0.142103 c 0,9.118097 1.587422,10.440949 10.316692,10.439679 z"
     id="rect4158-0-3-2"
     sodipodi:nodetypes="ccccccscc" />
  <path
     inkscape:connector-curvature="0"
     style="color:#000000;display:inline;overflow:visible;visibility:visible;fill:#faf8f6;fill-opacity:1;fill-rule:nonzero;stroke:none;stroke-width:0.26457033;marker:none;enable-background:accumulate"
     d="M 56.970085,20.416739 40.039136,3.4857881 v 6.084601 0.264571 0.142103 c 0,9.3378199 0.95934,10.4854419 10.316692,10.4396759 z"
     id="rect4158-0-3" />
</svg>
